X:1
T:Room for You
T:Room for You
T:Bentley DeForest Ackley
T:Eliza Edmunds Hewitt, 1912
T:Public Domain Courtesy of the Cyber Hymnal™
T:Public Domain Courtesy of the Cyber Hymnal™
C:Bentley DeForest Ackley
Z:Public Domain
Z:Courtesy of the Cyber Hymnal™
%%score ( 1 2 ) ( 3 4 )
L:1/8
Q:1/4=150
M:6/4
K:Ab
V:1 treble 
V:2 treble 
V:3 bass 
V:4 bass 
V:1
 [CE][CE] | [Ec]2 [Ec]2 [Ec]2 [Fd]2 [Ec]2 [=D=B]2 | [Ec]6 [CA]4 [Ec]2 | %3
w: 1.~There is|room in the fold of the|Shep- herd For|
w: 2.~There is|room in the field of the|Mas- ter And|
w: 3.~There is|room in the ranks of the|Cap- tain For|
w: 4.~There is|room in the beau- ti- ful|ci- ty, And|
 [Ec]2 [DB]2 [C=A]2 [DB]2 [Ec]3 [DB] | [CA]6- [CA]4 [CE][CE] | %5
w: those who have wan- dered a-|way; * There is|
w: work for His ser- vants to|do; * A ~|
w: sol- diers to fight a- gainst|sin; * A- nd|
w: Je- sus has o- pened the|door; * He will|
 [Ec]2 [Ec]2 [Ec]2 [Fd]2 [Ec]2 [=D=B]2 | [Ec]6 [CA]4 [Ec]2 | [Ec]2 [DB]2 [C=A]2 [DB]2 [Ec]3 [DB] | %8
w: room in the heart of the|Sav- ior For|ev- ery poor sin- ner to-|
w: use for each tal- ent He|gives you, A|sheaf to be gar- nered by|
w: all who are trust- ful and|faith- ful Thro’|Him will the vic- to- ry|
w: ga- ther the least of His|child- ren Where|sor- row shall come ne- ver-|
 [CA]12 ||"^Refrain" [EB]6 [Ec]6 | (d2 e2) [Ed]2 [Ec]4 [Ac][Ac] | %11
w: day.|||
w: you.|Room, room,|room * for you, In the|
w: win.|||
w: more.|||
 [Ac]2 [GB]2 [FA]2 [FB]2 [FA]2 [FB]2 | [=Ec]12 | [Ec]4 [Ac]2 [Gd]6 | [Ae]4 [_GA]2 [FA]4 [_FB]2 | %15
w: ||||
w: heart of the Sav- ior a-|bove;|Room for me,|room for you, Come,|
w: ||||
w: ||||
 [Ec]2 [Ed]2 [Ec]2 [DB]2 [Ec]3 [DB] | [CA]6- [CA]4 |] %17
w: ||
w: rest in His won- der- ful|love. *|
w: ||
w: ||
V:2
 x2 | x12 | x12 | x12 | x12 | x12 | x12 | x12 | x12 || x12 | E4 x8 | x12 | x12 | x12 | x12 | x12 | %16
 x10 |] %17
V:3
 [A,,A,][A,,A,] | [A,,A,]2 [A,,A,]2 [A,,A,]2 [A,,A,]2 [A,,A,]2 [A,,A,]2 | %2
 [A,,A,]6 [A,,E,]4 [A,,A,]2 | [E,G,]2 [E,G,]2 [E,^F,]2 [E,G,]2 [E,A,]3 E, | %4
 [A,,E,]6- [A,,E,]4 [A,,A,][A,,A,] | [A,,A,]2 [A,,A,]2 [A,,A,]2 [A,,A,]2 [A,,A,]2 [A,,A,]2 | %6
 [A,,A,]6 [A,,E,]4 [A,,A,]2 | [E,G,]2 [E,G,]2 [E,^F,]2 [E,G,]2 [E,A,]3 E, | [A,,E,]12 || %9
 [E,G,]6 A,6 | [G,B,]4 [G,B,]2 A,4 [A,E][A,E] | [F,F]2 [F,C]2 [F,C]2 [D,D]2 [D,A,]2 [D,F,]2 | %12
 [C,G,]12 | A,4 [A,E]2 [B,E]6 | [CE]4 [C,E]2 [D,D]4 [D,A,]2 | %15
 [E,A,]2 [E,B,]2 [E,A,]2 [E,G,]2 [E,A,]3 E, | [A,,E,]6- [A,,E,]4 |] %17
V:4
 x2 | x12 | x12 | x11 E, | x12 | x12 | x12 | x11 E, | x12 || x6 A,6 | x6 A,4 x2 | x12 | x12 | %13
 A,4 x8 | x12 | x11 E, | x10 |] %17

